assets/icons/qvision/auto_awesome_mosaic.svg

<svg xmlns="http://www.w3.org/2000/svg" height="24" viewBox="0 0 24 24" width="24"><path d="M0 0h24v24H0z" fill="none"/><path d="M3 5v14c0 1.1.89 2 2 2h6V3H5c-1.11 0-2 .9-2 2zm16-2h-6v8h8V5c0-1.1-.9-2-2-2zm-6 18h6c1.1 0 2-.9 2-2v-6h-8v8z"/></svg>

<svg width="24" height="24" viewBox="0 0 24 24" fill="none" xmlns="http://www.w3.org/2000/svg">
<g clip-path="url(#clip0_147_3206)">
<path d="M3 5V19C3 20.1 3.89 21 5 21H11V3H5C3.89 3 3 3.9 3 5ZM19 3H13V11H21V5C21 3.9 20.1 3 19 3ZM13 21H19C20.1 21 21 20.1 21 19V13H13V21Z" fill="#323232"/>
</g>
<defs>
<clipPath id="clip0_147_3206">
<rect width="24" height="24" fill="white"/>
</clipPath>
</defs>
</svg>
